!!!SOCIAL_FUNCTION:	cochiti
!!!PDT:	1957
!!!OTL: No_60_Buffalo_Dance_Song_(a).krn
!!!LING_GROUP: Keresan
!!!LANG: Tone
!!!REG: Southwest
**kern	**kern
*staff2	*staff1
=1-	=1-
*clefF4	*clefF4
*k[b-]	*k[b-]
*M2/4	*M2/4
16GG/LL	8.r
16GG/	.
16GG/	.
16GG/JJ	16F\
16GG/LL	4F\
16GG/	.
16GG/	.
16GG/JJ	.
=2!|:	=2!|:
2r	8d\L
.	[8d\J
.	8d\L]
.	16d\L
.	16c\JJ
=3	=3
2r	4d\
.	16d\LL
.	16c\J
.	8B-\J
=4	=4
*M3/4	*M3/4
2.r	4d\
.	16e\LL
.	16d\J
.	[8d\J
.	8d\L]
.	16d\L
.	16c\JJ
=5	=5
2.r	4c\
.	8B-\
.	16r
.	16B-\
.	4B-\
=6	=6
*M2/4	*M2/4
2r	8c\L
.	[8c\J
.	8c\L]
.	16c\L
.	16B-\JJ
=7	=7
2r	4c\
.	4B-\
=8	=8
*M3/4	*M3/4
2.r	4c\
.	16d\LL
.	16c\J
.	[8c\J
.	8c\L]
.	16c\L
.	16B-\JJ
=9	=9
2.r	8.B-\L
.	16F\Jk
.	8F\
.	8r
.	16B-\LK
.	8.F\J
=10	=10
*M2/4	*M2/4
2r	8B-\L
.	[8B-\J
.	8B-\L]
.	16B-\L
.	16F\JJ
=11	=11
2r	4B-\
.	8F\
.	16r
.	16B-\
=12	=12
2r	4B-\
.	8.B-\L
.	16F\Jk
=13	=13
2r	16B-\LL
.	16F\J
.	[8F\J
.	8F\L]
.	8F\J
=14	=14
2r	4.F\
.	8r
=15	=15
2r	8G\L
.	8F\J
.	8F\L
.	8F\J
=16	=16
2r	16G\LL
.	16F\J
.	8F\J
.	8.F\L
.	16F\Jk
=17	=17
*M3/4	*M3/4
2.r	8.F\L
.	16F\Jk
.	8F\
.	8r
.	4r
=18	=18
*M2/4	*M2/4
2r	4F\
.	4F\
=19	=19
2r	8F\
.	16r
.	16F\
.	4F\
=20:|!	=20:|!
*M3/4	*M3/4
2.r	4F\
.	4F\
.	8.F\L
.	16B-\Jk
=21	=21
*M2/4	*M2/4
2r	4B-\
.	8.B-\L
.	16F\Jk
=22	=22
2r	4B-\
.	8c\L
.	[8B-\J
=23	=23
2r	8B-\L]
.	8F\J
.	8F\
.	16r
.	16B-\
=24	=24
2r	4B-\
.	8.B-\L
.	16F\Jk
=25	=25
2r	16B-\LL
.	16F\J
.	[8F\J
.	8F\L]
.	8F\J
=26	=26
2r	4F\
.	8F\
.	8r
=27	=27
2r	8G\L
.	8F\J
.	8F\L
.	8F\J
=28	=28
2r	16G\LL
.	16F\J
.	8F\J
.	4F\
=29	=29
2r	8.F\L
.	16F\Jk
.	4F\
==	==
*-	*-
